src/actions/24/show-menu.svg

<svg xmlns="http://www.w3.org/2000/svg" viewBox="0 0 24 24">
    <path d="M4 4v3h3V4H4zm4 0v1h9l1-1H8zm0 2v1h6.17l1-1H8zm-4 5v3h3v-3H4zm4 0v1h2l1-1H8zm7 0-1 1h4v-1h-3zm-2 2-1 1h2v-1h-1zm-3.17 3-1 1H18v-1H9.83zM8 18l-1 1h8v-1H8zm10 1v1h2v-1h-2z" style="fill:currentColor;fill-opacity:1;stroke:none;color:#050505;opacity:.7"/>
</svg>

<svg xmlns="http://www.w3.org/2000/svg" viewBox="0 0 24 24">
  <defs id="defs3051">
    <style type="text/css" id="current-color-scheme">
      .ColorScheme-Text {
        color:#363636;
      }
      </style>
  </defs>
 <path style="fill:currentColor;fill-opacity:1;stroke:none" 
     d="M 4 4 L 4 7 L 7 7 L 7 4 L 4 4 z M 8 4 L 8 5 L 17 5 L 18 4 L 8 4 z M 8 6 L 8 7 L 12 7 L 13 7 L 14.169922 7 L 15.169922 6 L 8 6 z M 4 11 L 4 12 L 4 13 L 4 14 L 7 14 L 7 13 L 7 12 L 7 11 L 4 11 z M 8 11 L 8 12 L 10 12 L 11 11 L 8 11 z M 15 11 L 14 12 L 18 12 L 18 11 L 15 11 z M 13 13 L 12 14 L 14 14 L 14 13 L 13 13 z M 9.8300781 16 L 8.8300781 17 L 18 17 L 18 16 L 12 16 L 11 16 L 9.8300781 16 z M 8 18 L 7 19 L 15 19 L 15 18 L 8 18 z M 18 19 L 18 20 L 20 20 L 20 19 L 18 19 z "
     class="ColorScheme-Text"
     />
</svg>
